X:1
T:Title
%%score { 1 | 2 }
L:1/8
M:2/4
K:D
V:1 treble nm="Grand Piano"
V:2 bass 
V:1
 z2 z[Q:1/4=100] D | FF F[FA] | [Fd]2 [FA][FA] | [DGB][DBd] [DAc][DGB] | [DFA]3 [A,DF] | %5
 [A,EG][A,EG] [A,CA][A,CE] | [A,DF]2 [DFA][A,DF] | [G,CE][CEA] [DEB][B,D^G] | [A,CA]3 [A,EG] | %9
 [A,DF][A,DF] [A,DF][A,FA] | [Fd]2 [FA][FA] | [GB][Bd] [Ac][GB] | [FA]3 [FA] | %13
 [Fd][DAd] [DAc][DGB] | [DFA]2 [DGB][DGB] | [DFA][DF] [A,EG][K:bass][G,CE] | [F,D]4 | %17
 [A,CA][A,CA] [A,DA][A,EA] | [A,FA]2 [A,DF]2 | [B,DB][B,DB] [B,EB][B,FB] | [B,GB]2 [B,EG]2 | %21
 [Ec][Ec] [EB][Ec] | [Dd]2 [DB][DB] | [DA][DF] [EG][CE] |[M:3/8] D3 |] %25
V:2
 z2 z [D,F,] | [D,A,D][D,A,D] [D,A,D][D,D] | [D,A,]2 [D,D][D,D] | G,G, G,G, | D,3 D, | %5
 C,C, A,,A,, | D,2 D,D, | E,E, E,E, | A,,3 C, | D,D, D,D, | [D,A,]2 [D,D][D,D] | %11
 [G,D][G,D] [G,D][G,D] | [D,D]3 [D,D] | [D,A,]F, G,G, | D,2 G,G, | A,A, A,,A,, | D,4 | %17
 A,,A,, B,,C, | D,2 D,2 | B,,B,, C,D, | E,2 E,2 | [A,,A,][A,,A,] [A,,G,][A,,G,] | %22
 [B,,F,]2 [G,,G,][G,,G,] | [A,,F,][A,,A,] [A,,A,][A,,G,] |[M:3/8] [D,F,]3 |] %25

